X:1
T:Unruhe
T:Unruhe
T:Op. 13 Bardenklänge H 2 No. 2
T:Johann Kaspar Mertz (tabbed by Classical Guitar Empire)
C:Johann Kaspar Mertz (tabbed by Classical Guitar Empire)
%%score { ( 1 2 5 ) | ( 3 4 6 ) }
L:1/8
Q:1/4=140
M:4/4
K:C
V:1 treble-8 nm="Guitar" snm="Guit."
V:2 treble-8 
V:5 treble-8 
V:3 tab stafflines=6 strings=E2,A2,D3,G3,B3,E4 nostems 
V:4 tab stafflines=6 strings=E2,A2,D3,G3,B3,E4 nostems 
V:6 tab stafflines=6 strings=E2,A2,D3,G3,B3,E4 nostems 
V:1
"^Più Allegro"!f!!>(! !2!!1!!0![Ace]/"_risoluto"!1!f/!0!e/!3!d/ !1!c/!0!B/!2!A!p!!<(! z4!>)!!<)! | %1
!f!x/!ff!!<(!!2!A/!1!c/!0!e/ !3!^d/!0!e/!3!c/!fff!!4!a/!ff!!>(! !2![cda]2[Q:1/4=120][Q:1/4=100]!f! !1!!3!!2![Be^g]2!<)!!>)! | %2
"^a tempo"[Q:1/4=140]!mf! !1!!0!!2![^GBf]/!>(!!0!e/!4!^d/!3!=d/ !2!^c/!1!=c/!0!B!p!!>(! z4!>)!!>)! | %3
x/!p!!<(!^G/B/e/ ^d/!0!e/!3!=d/!4!b/!f!!>(! !2![dfb]2[Q:1/4=120][Q:1/4=100]!p! !1![cea]2!<)!!>)! | %4
"^a tempo"[Q:1/4=140]!f! !3!a(!>!!1!^g/a/) a!ff!a!f! !2!a(!>!!1!g/a/) a!ff!a | %5
!f! !2!!1![fa](!>!!2!_b/a/) a!ff![fa]!f!"^V" !3!!1![^fa](!>!!4!=b/a/) a!ff![fa] | %6
!mf! !1![cea]"^risoluto"(3(!4!e'/!1!c'/)!3!a/ (6:4:6!0!e/!1!c/!3!A/!2!E/A/c/ !>!e4 | %7
!f! !0!!2!!1![DABf] !>!!1!!3!!2!!4![^DAc^f]2 [DAcf] [EABe]2 !fermata![E,^GBe]2 || %8
!p!"_dol. con moto"[Q:1/4=145] z !>!!1!!4![cae']2 !>!!3![ca^d']2 !>![cae']2 !>![cad'] | %9
[Q:1/4=140]!mp! e'(3(e'/c'/)a/ e(3e/c/A/ Ex/[Ac]/x/[Ac]/x/[Ace]/ | %10
!p![Q:1/4=145] z !>!!1!!0!!3![^GBe']2 !>!!2![GB^d']2 !>![GBe']2 !>![GBd'] | %11
[Q:1/4=140]!mp! !4!e'(3!4!=d'/!1!b/!3!^g/ !0!e(3(!3!d/!0!B/)!1!^G/!<(! !2!E!3!x/!2!A/!<)!!f!!0!x/!>(!!2!!0![AB]/!2!x/!1!!0![GBe]/!>)! | %12
!p!"_dol."[Q:1/4=145] z !>![cae']2 !>![ca^d']2 !>![cae']2 !>![cad'] | %13
!mp![Q:1/4=140] e'(3(e'/c'/)a/ e(3e/c/A/!<(! Ex/[Ac]/!<)!!f!x/!>(![Ac]/x/[Ace]/!>)! | %14
!p![Q:1/4=145] z !>![^GBe']2 !>![GB^d']2 !>![GBe']2 [GBd'] | %15
[Q:1/4=140] e'(3=d'/b/^g/ e(3(d/B/)^G/!<(! Ex/A/!<)!!f!x/!>(![AB]/x/[GBe]/!>)! | %16
!p!(6:4:6x/"_cresc."!2!A/!0!B/(!>!!1!c/B/)A/!mp!(6:4:6x/A/B/(!>!c/B/)A/!mf!(6:4:6x/!3!A/B/(!>!c/B/)A/!f!(6:4:6x/!3!A/B/(!>!!2!c/B/)A/ | %17
!mf!(6:4:6x/A/c/e/c/A/z(3x/!p!e'/e'/!mf! f'(3x/!p!d/d/!mf! B(3x/e/e/ | %18
(6:4:6x/"_cresc."!pp!A/B/(!>!c/B/)A/ (6:4:6z/!p! A/B/(!>!c/B/)A/(6:4:6x/!mp!A/B/(!>!c/B/)A/ (6:4:6z/!mf! A/B/(!>!c/B/)A/ | %19
!f!!<(! (6:4:6z/ c/A/E/A/c/ (6:4:6!0!e/!3!a/!1!c'/!4!e'/e'/!fff!e'/!<)!!ff!!>(! (6:4:6(e'/c'/)a/e/c/A/(3x/A/c/(3x/^G/!mp!B/!>)! | %20
!f! z/ !>!!1!A!>!!3!B!>!!4!c!>!!2!d/!mf! !0!e/!>(!!4!e'/!3!^d'/!2!=d'/ !1!c'/!4!b/!2!a/!1!^g/!>)! | %21
!pp! a/"^loco"!f!!0!e/!4!^d/!>!!1!f/ !0!e/!1!c/!0!B/!3!=d/!mf! !1!c/!2!A/!1!^G/!0!B/!3!x/!2!E/!4!C/!0!A,/ | %22
x/^G/B/e/ [Bf]!>![Bf]x/!2!!0![Ae]/x!pp!x/!4!^d/x/!3!=d/ | %23
!mf!x/!2!^c/x/!2!=c/!0!x/!0!B/!1!x/!3!A/!2!x/A/x/[ABe]/x/!1!^G/x/[GBe]/ | %24
"^cresc."!p! z/!mp! !>!A!f!!>!B!ff!!>!c!fff!!>!d/ e/!ff!!>(!e'/^d'/=d'/ c'/b/a/^g/!>)! | %25
!mp! a/"^loco"!f!e/^d/!>!f/ e/c/B/=d/!mf! c/A/^G/B/x/E/C/A,/ | %26
x/^G/B/e/ [Bf]!>![Bf]x/[Ae]/x!pp!x/^d/x/=d/ |!mf!x/^c/x/=c/x/B/x/A/x/A/x/[ABe]/x/^G/x/[GBe]/ | %28
!f! !2!A/!0!B/!1!c/!3!d/ !0!e/!1!^f/!3!^g/!4!a/ (!>!!4!g/>!1!=f/)!3!d/!0!B/ !1!^G2 | %29
 A/B/c/d/ e/^f/^g/a/ (!>!g/>=f/)d/B/ ^G2 | %30
x/e'/^d'/=d'/ c'/b/a/^g/ a/e/"_loco"!ff!^d/=d/ ^c/=c/B/^A/ | %31
 !>!A^G/=G/ ^F/=F/E/^D/ !>!ED/=D/ ^C/=C/B,/^A,/ | %32
x/!p!!3!A/!>!!1!!2![^Gc]/!0!B/x/A/!>![Gc]/B/x/!mf!A/!>![Gc]/B/x/A/!>![Gc]/B/ | %33
!f! !2!A!p!A/>A/ AA!mf!!<(! A!4!!1![Adf]/>!ff!f/!<)!!f!!>(! [Adf]!mf![Adf]!>)! | %34
!mp! !2!A!p!A/>A/ AA!mp!!<(! A!3!!2!!1![dfa]/>"^rit."[Q:1/4=120]a/ [dfa][Q:1/4=100]!4![dfb]!<)! | %35
!fff! !1!!4![A,cec']2 z2[Q:1/4=90]!p! [A,Acea]2[Q:1/4=70] [A,Acea]2 | !fermata![A,Acea]8 |] %37
V:2
 !0!A,4 !2!E/!3!F/!2!E/!0!D/ !3!C/!2!B,/!0!A, | !0!A,4 z"^rit." E,3 | %2
 E,4 !3!F/!2!E/!1!^D/!0!=D/ !4!^C/!3!=C/!pp!!2!B, | E,4 z"^rit." E, A,2 | %4
 !2![A,c]3 [A,c] !3![A,^c]3 [A,c] | !0!!3![Dd]3 [Dd] !2!!1![^Dc]3 [Dc] | %6
 !3!Ezz2(6:4:6x/c/A/E/A/c/ (6:4:6!3!C/!2!A/!1!c/!0!A,/A/c/ | x8 || !0!A,2 A,2 A,2 A,2 | A,4xCEA, | %10
 E,2 E,2 E,2 E,2 | E,4x=FDE | A,2 A,2 A,2 A,2 | A,4xCEA, | E,2 E,2 E,2 E,2 | E,4xFDE | %16
 !0!A,2 !3!G,2 !2!^F,2 !1!=F,2 | E,2 Ee fDB,E | A,2 G,2 ^F,2 =F,2 | E,6 EE, | !0!A,!0!E,A,E, A,4 | %21
 A,E,A,E, A,2 A2 | E,2 ^G/D/G !>!!3!CC!1!B,!0!E, | !0!A,!1!F,D^D EE,EE, | A,!mf!E,A,E, A,4 | %25
 A,E,A,E, A,2 A2 | E,2 ^G/D/G !>!CCB,E, | A,F,D^D EE,EE, | !0!A,4 E,2x/!3!F/!2!E/!0!e/ | %29
 A,4 E,2x/F/E/e/ | A,8 | x8 | A,E,A,E, A,E,A,E, | A,4- A,A,A,A, | A,4- A,A,A,A, | x8 | x8 |] %37
V:3
!>(! [!3!A,!2!C!1!E]/ !1!F/ !1!E/ !2!D/ !2!C/ !2!B,/ !3!A,!<(! x4!>)!!<)! | %1
 !6!x/!<(! !3!A,/ !2!C/ !1!E/ !2!^D/ !1!E/ !3!C/ !1!A/!>(! [!3!C!2!D!1!A]2 [!3!B,!2!E!1!^G]2!<)!!>)! | %2
 [!3!^G,!2!B,!1!F]/!>(! !1!E/ !2!^D/ !2!=D/ !2!^C/ !2!=C/ !2!B,!>(! x4!>)!!>)! | %3
 !6!E,,/!<(! !3!^G,/ !2!B,/ !1!E/ !2!^D/ !1!E/ !3!=D/ !1!B/!>(! [!3!D!2!F!1!B]2 [!3!C!2!E!1!A]2!<)!!>)! | %4
 !1!A (!>!!1!^G/ !1!A/) !1!A !1!A !1!A (!>!!1!G/ !1!A/) !1!A !1!A | %5
 [!2!F!1!A] (!>!!1!_B/ !1!A/) !1!A [!2!F!1!A] [!2!^F!1!A] (!>!!1!=B/ !1!A/) !1!A [!2!F!1!A] | %6
 [!3!C!2!E!1!A] (3(!1!e/ !1!c/) !2!A/ (6:4:6!1!E/ !2!C/ !3!A,/ !4!E,/ !3!A,/ !2!C/ !>!!1!E4 | %7
 [!4!D,!3!A,!2!B,!1!F] !>![!4!^D,!3!A,!2!C!1!^F]2 [!4!D,!3!A,!2!C!1!F] [!4!E,!3!A,!2!B,!1!E]2 !fermata![!6!E,,!3!^G,!2!B,!1!E]2 || %8
 x !>![!4!C!2!A!1!e]2 !>![!4!C!2!A!1!^d]2 !>![!4!C!2!A!1!e]2 !>![!4!C!2!A!1!d] | %9
 !1!e (3(!1!e/ !1!c/) !2!^A/ !1!E (3!1!E/ !2!C/ !3!^A,/ !4!E, !6!x/ [!3!=A,!2!C]/ !5!x/ [!3!A,!2!C]/ !6!x/ [!3!A,!2!C!1!E]/ | %10
 x !>![!5!^G,!2!B,!1!e]2 !>![!5!G,!2!B,!1!^d]2 !>![!5!G,!2!B,!1!e]2 !>![!5!G,!2!B,!1!d] | %11
 !1!e (3!1!=d/ !1!B/ !2!^G/ !1!E (3(!2!D/ !2!B,/) !3!^G,/!<(! !4!E, !5!x/ !3!A,/!<)! !5!x/!>(! [!3!A,!2!B,]/ !5!x/ [!3!G,!2!B,!1!E]/!>)! | %12
 x !>![!4!C!2!A!1!e]2 !>![!4!C!2!A!1!^d]2 !>![!4!C!2!A!1!e]2 !>![!4!C!2!A!1!d] | %13
 !1!e (3(!1!e/ !1!c/) !2!A/ !1!E (3!1!E/ !2!C/ !3!A,/!<(! !4!E, !6!x/ [!3!A,!2!C]/!<)! !5!x/!>(! [!3!A,!2!C]/ !6!x/ [!3!A,!2!C!1!E]/!>)! | %14
 x !>![!5!^G,!2!B,!1!e]2 !>![!5!G,!2!B,!1!^d]2 !>![!5!G,!2!B,!1!e]2 [!5!G,!2!B,!1!d] | %15
 !1!e (3!1!=d/ !1!B/ !2!^G/ !1!E (3(!2!D/ !2!B,/) !3!^G,/!<(! !4!E, !5!x/ !3!A,/!<)! !5!x/!>(! [!3!A,!2!B,]/ !5!x/ [!3!G,!2!B,!1!E]/!>)! | %16
 (6:4:6!6!x/ !3!A,/ !2!B,/ (!>!!2!C/ !2!B,/) !3!A,/ (6:4:6!6!G,,/ !3!A,/ !2!B,/ (!>!!2!C/ !2!B,/) !3!A,/ (6:4:6!6!^F,,/ !3!A,/ !2!B,/ (!>!!2!C/ !2!B,/) !3!A,/ (6:4:6!6!=F,,/ !3!A,/ !2!B,/ (!>!!2!C/ !2!B,/) !3!A,/ | %17
 (6:4:6!6!E,,/ !3!A,/ !2!C/ !1!E/ !2!C/ !3!A,/ x (3!1!x/ !1!e/ !1!e/ !1!f (3!5!x/ !2!D/ !2!D/ !2!B, (3!5!x/ !1!E/ !1!E/ | %18
 (6:4:6!6!x/ !3!A,/ !2!B,/ (!>!!2!C/ !2!B,/) !3!A,/ (6:4:6x/ !3!A,/ !2!B,/ (!>!!2!C/ !2!B,/) !3!A,/ (6:4:6!6!^F,,/ !3!A,/ !2!B,/ (!>!!2!C/ !2!B,/) !3!A,/ (6:4:6x/ !3!A,/ !2!B,/ (!>!!2!C/ !2!B,/) !3!A,/ | %19
!<(! (6:4:6x/ !2!C/ !3!A,/ !4!E,/ !3!A,/ !2!C/ (6:4:6!1!E/ !2!A/ !1!c/ !1!e/ !1!e/ !1!e/!<)!!>(! (6:4:6(!1!e/ !1!c/) !2!A/ !1!E/ !2!C/ !3!A,/ (3!5!x/ !3!A,/ !2!C/ (3!6!E,,/ !3!^G,/ !2!B,/!>)! | %20
 x/ !>!!3!A, !>!!3!B, !>!!3!C !>!!2!D/ !1!E/!>(! !1!e/ !1!^d/ !1!=d/ !1!c/ !2!B/ !2!A/ !2!^G/!>)! | %21
 !2!A/ !1!E/ !2!^D/ !>!!1!F/ !1!E/ !2!C/ !2!B,/ !2!=D/ !2!C/ !3!A,/ !3!^G,/ !2!B,/ !4!x/ !4!E,/ !5!C,/ !5!A,,/ | %22
 !6!E,,/ !3!^G,/ !2!B,/ !1!E/ [!2!B,!1!F] !>![!2!B,!1!F] !6!x/ [!3!A,!1!E]/ !6!x !6!x/ !2!^D/ !6!E,,/ !2!=D/ | %23
 !6!x/ !2!^C/ !6!F,,/ !2!=C/ !5!x/ !2!B,/ !5!x/ !3!A,/ !5!x/ !3!A,/ !6!E,,/ [!3!A,!2!B,!1!E]/ !5!x/ !3!^G,/ !6!E,,/ [!3!G,!2!B,!1!E]/ | %24
 x/ !>!!3!A, !>!!3!B, !>!!3!C !>!!2!D/ !1!E/!>(! !1!e/ !1!^d/ !1!=d/ !1!c/ !2!B/ !2!A/ !2!^G/!>)! | %25
 !2!A/ !1!E/ !2!^D/ !>!!1!F/ !1!E/ !2!C/ !2!B,/ !2!=D/ !2!C/ !3!A,/ !3!^G,/ !2!B,/ !4!x/ !4!E,/ !5!C,/ !5!A,,/ | %26
 !6!E,,/ !3!^G,/ !2!B,/ !1!E/ [!2!B,!1!F] !>![!2!B,!1!F] !6!x/ [!3!A,!1!E]/ !6!x !6!x/ !2!^D/ !6!E,,/ !2!=D/ | %27
 !6!x/ !2!^C/ !6!F,,/ !2!=C/ !5!x/ !2!B,/ !5!x/ !3!A,/ !5!x/ !3!A,/ !6!E,,/ [!3!A,!2!B,!1!E]/ !5!x/ !3!^G,/ !6!E,,/ [!3!G,!2!B,!1!E]/ | %28
 !3!A,/ !2!B,/ !2!C/ !2!D/ !1!E/ !1!^F/ !1!^G/ !1!A/ (!>!!1!G3/4 !1!=F/4) !2!D/ !2!B,/ !3!^G,2 | %29
 !3!A,/ !2!B,/ !2!C/ !2!D/ !1!E/ !1!^F/ !1!^G/ !1!A/ (!>!!1!G3/4 !1!=F/4) !2!D/ !2!B,/ !3!^G,2 | %30
 !6!x/ !1!e/ !1!^d/ !1!=d/ !1!c/ !2!B/ !2!A/ !2!^G/ !2!A/ !1!E/ !2!^D/ !2!=D/ !2!^C/ !2!=C/ !2!B,/ !3!^A,/ | %31
 !>!!3!A, !3!^G,/ !3!=G,/ !4!^F,/ !4!=F,/ !4!E,/ !4!^D,/ !>!!4!E, !4!D,/ !4!=D,/ !5!^C,/ !5!=C,/ !5!B,,/ !5!^A,,/ | %32
 !6!x/ !3!A,/ !>![!3!^G,!2!C]/ !2!B,/ !6!x/ !3!A,/ !>![!3!G,!2!C]/ !2!B,/ !6!x/ !3!A,/ !>![!3!G,!2!C]/ !2!B,/ !6!x/ !3!A,/ !>![!3!G,!2!C]/ !2!B,/ | %33
 !3!A, !3!A,3/4 !3!A,/4 !3!A, !3!A,!<(! !3!A, [!3!A,!2!D!1!F]3/4 !1!F/4!<)!!>(! [!3!A,!2!D!1!F] [!3!A,!2!D!1!F]!>)! | %34
 !3!A, !3!A,3/4 !3!A,/4 !3!A, !3!A,!<(! !3!A, [!3!D!2!F!1!A]3/4 !1!A/4 [!3!D!2!F!1!A] [!3!D!2!F!1!B]!<)! | %35
 [!5!A,,!3!C!2!E!1!c]2 x2 [!5!A,,!4!A,!3!C!2!E!1!A]2 [!5!A,,!4!A,!3!C!2!E!1!A]2 | %36
 !fermata![!5!A,,!4!A,!3!C!2!E!1!A]8 |] %37
V:4
 !5!A,,4 !4!E,/ !4!F,/ !4!E,/ !4!D,/ !5!C,/ !5!B,,/ !5!A,, | !5!A,,4 x !6!E,,3 | %2
 !6!E,,4 !4!F,/ !4!E,/ !4!^D,/ !4!=D,/ !5!^C,/ !5!=C,/ !5!B,, | !6!E,,4 x !6!E,, !5!A,,2 | %4
 [!5!A,,!3!C]3 [!5!A,,!3!C] [!5!A,,!3!^C]3 [!5!A,,!3!C] | %5
 [!4!D,!3!D]3 [!4!D,!3!D] [!5!^D,!3!C]3 [!5!D,!3!C] | %6
 !5!E, x x2 (6:4:6!2!x/ !2!C/ !3!A,/ !4!E,/ !3!A,/ !2!C/ (6:4:6!5!C,/ !3!A,/ !2!C/ !5!A,,/ !3!A,/ !2!C/ | %7
 x8 || !5!A,,2 !5!A,,2 !5!A,,2 !5!A,,2 | !5!A,,4 !5!x !5!C, !4!E, !5!A,, | %10
 !6!E,,2 !6!E,,2 !6!E,,2 !6!E,,2 | !6!E,,4 !5!x !4!=F, !4!D, !4!E, | %12
 !5!A,,2 !5!A,,2 !5!A,,2 !5!A,,2 | !5!A,,4 !5!x !5!C, !4!E, !5!A,, | %14
 !6!E,,2 !6!E,,2 !6!E,,2 !6!E,,2 | !6!E,,4 !5!x !4!F, !4!D, !4!E, | %16
 !5!A,,2 !6!G,,2 !6!^F,,2 !6!=F,,2 | !6!E,,2 !4!E, !3!E !3!F !4!D, !5!B,, !4!E, | %18
 !5!A,,2 !6!G,,2 !6!^F,,2 !6!=F,,2 | !6!E,,6 !4!E, !6!E,, | !5!A,, !6!E,, !5!A,, !6!E,, !5!A,,4 | %21
 !5!A,, !6!E,, !5!A,, !6!E,, !5!A,,2 !3!A,2 | %22
 !6!E,,2 !3!^G,/ !4!D,/ !3!G, !>!!5!C, !5!C, !5!B,, !6!E,, | %23
 !5!A,, !6!F,, !4!D, !4!^D, !4!E, !6!E,, !4!E, !6!E,, | !5!A,, !6!E,, !5!A,, !6!E,, !5!A,,4 | %25
 !5!A,, !6!E,, !5!A,, !6!E,, !5!A,,2 !3!A,2 | %26
 !6!E,,2 !3!^G,/ !4!D,/ !3!G, !>!!5!C, !5!C, !5!B,, !6!E,, | %27
 !5!A,, !6!F,, !4!D, !4!^D, !4!E, !6!E,, !4!E, !6!E,, | !5!A,,4 !6!E,,2 !4!x/ !4!F,/ !4!E,/ !1!E/ | %29
 !5!A,,4 !6!E,,2 !4!x/ !4!F,/ !4!E,/ !1!E/ | !5!A,,8 | x8 | %32
 !5!A,, !6!E,, !5!A,, !6!E,, !5!A,, !6!E,, !5!A,, !6!E,, | !5!A,,4- !5!A,, !5!A,, !5!A,, !5!A,, | %34
 !5!A,,4- !5!A,, !5!A,, !5!A,, !5!A,, | x8 | x8 |] %37
V:5
 x8 | x8 | x8 | x8 | x8 | x8 | x8 | x8 || x8 | x8 | x8 | x8 | x8 | x8 | x8 | x8 | x8 | x8 | %18
 x2 e2 x2 e2 | e2 x2 x4 | x8 | x8 | x8 | x8 | x8 | x8 | x8 | x8 | x8 | x8 | x8 | x8 | x8 | x8 | %34
 !1!!0![ce]2 x2 x4 | x8 | x8 |] %37
V:6
 x8 | x8 | x8 | x8 | x8 | x8 | x8 | x8 || x8 | x8 | x8 | x8 | x8 | x8 | x8 | x8 | x8 | x8 | %18
 x2 !1!E2 x2 !1!E2 | !1!E2 x2 x4 | x8 | x8 | x8 | x8 | x8 | x8 | x8 | x8 | x8 | x8 | x8 | x8 | x8 | %33
 x8 | [!2!C!1!E]2 x2 x4 | x8 | x8 |] %37

